groups/oxygen/acid_chloride.svg

<?xml version='1.0' encoding='iso-8859-1'?>
<svg version='1.1' baseProfile='full'
              xmlns='http://www.w3.org/2000/svg'
                      xmlns:rdkit='http://www.rdkit.org/xml'
                      xmlns:xlink='http://www.w3.org/1999/xlink'
                  xml:space='preserve'
width='256px' height='256px' viewBox='0 0 256 256'>
<!-- END OF HEADER -->
<rect style='opacity:1.0;fill:#FFFFFF;stroke:none' width='256.0' height='256.0' x='0.0' y='0.0'> </rect>
<path class='bond-0 atom-0 atom-1' d='M 45.3,63.0 L 134.8,114.2' style='fill:none;fill-rule:evenodd;stroke:#000000;stroke-width:2.0px;stroke-linecap:butt;stroke-linejoin:miter;stroke-opacity:1' />
<path class='bond-1 atom-1 atom-2' d='M 134.8,123.2 L 212.4,78.0' style='fill:none;fill-rule:evenodd;stroke:#000000;stroke-width:2.0px;stroke-linecap:butt;stroke-linejoin:miter;stroke-opacity:1' />
<path class='bond-1 atom-1 atom-2' d='M 127.0,109.8 L 204.6,64.6' style='fill:none;fill-rule:evenodd;stroke:#000000;stroke-width:2.0px;stroke-linecap:butt;stroke-linejoin:miter;stroke-opacity:1' />
<path class='bond-2 atom-1 atom-3' d='M 134.8,114.2 L 135.1,201.9' style='fill:none;fill-rule:evenodd;stroke:#000000;stroke-width:2.0px;stroke-linecap:butt;stroke-linejoin:miter;stroke-opacity:1' />
<path d='M 130.3,111.7 L 134.8,114.2 L 134.8,118.6' style='fill:none;stroke:#000000;stroke-width:2.0px;stroke-linecap:butt;stroke-linejoin:miter;stroke-miterlimit:10;stroke-opacity:1;' />
<path class='atom-1' d='M19.7042,107.746 C23.0596,109.667 25.6208,105.193 22.2655,103.272 C18.9101,101.351 21.4714,96.877 24.8268,98.7978 C28.1821,100.719 30.7434,96.2447 27.3881,94.3238 C24.0327,92.403 26.594,87.929 29.9493,89.8498 C33.3047,91.7707 35.866,87.2967 32.5106,85.3758 C29.1553,83.455 31.7165,78.981 35.0719,80.9018 C38.4273,82.8227 40.9886,78.3487 37.6332,76.4278 C34.2778,74.507 36.8391,70.033 40.1945,71.9538 C43.5498,73.8747 46.1111,69.4007 42.7558,67.4798 C39.4004,65.559 41.9617,61.085 45.3171,63.0058 C48.6724,64.9267 51.2337,60.4527 47.8783,58.5318 C44.523,56.611 47.0843,52.137 50.4396,54.0578 C53.795,55.9787 56.3563,51.5047 53.0009,49.5838 C49.6455,47.6629 52.2068,43.1889 55.5622,45.1098 C58.9176,47.0307 61.4788,42.5567 58.1235,40.6358 C54.7681,38.7149 57.3294,34.2409 60.6848,36.1618 C64.0401,38.0827 66.6014,33.6087 63.2461,31.6878 C59.8907,29.7669 62.452,25.2929 65.8073,27.2138 C69.1627,29.1347 71.724,24.6607 68.3686,22.7398 C65.0133,20.8189 67.5745,16.3449 70.9299,18.2658' style='fill:none;stroke:#7F7F7F;stroke-width:2.0px;stroke-linecap:butt;stroke-linejoin:miter;stroke-opacity:1' />
<text x='211.9' y='82.4' class='atom-2' style='font-size:40px;font-style:normal;font-weight:normal;fill-opacity:1;stroke:none;font-family:sans-serif;text-anchor:start;fill:#000000' >O</text>
<text x='123.2' y='237.3' class='atom-3' style='font-size:40px;font-style:normal;font-weight:normal;fill-opacity:1;stroke:none;font-family:sans-serif;text-anchor:start;fill:#000000' >C</text>
<text x='150.8' y='237.3' class='atom-3' style='font-size:40px;font-style:normal;font-weight:normal;fill-opacity:1;stroke:none;font-family:sans-serif;text-anchor:start;fill:#000000' >l</text>
</svg>

<svg height="256" viewBox="0 0 256 256" width="256" xmlns="http://www.w3.org/2000/svg"><path d="m0 0h256v256h-256z" fill="#fff"/><g fill="none" stroke-width="2"><path d="m45.3 63 89.5 51.2" stroke="#000"/><path d="m134.8 123.2 77.6-45.2" stroke="#000"/><path d="m127 109.8 77.6-45.2" stroke="#000"/><path d="m134.8 114.2.3 87.7" stroke="#000"/><path d="m130.3 111.7 4.5 2.5v4.4" stroke="#000" stroke-miterlimit="10"/><path d="m19.704 107.746c3.356 1.921 5.917-2.553 2.562-4.474-3.356-1.921-.795-6.395 2.561-4.474 3.355 1.921 5.916-2.553 2.561-4.474s-.794-6.395 2.561-4.474c3.356 1.921 5.917-2.553 2.562-4.474-3.356-1.921-.794-6.395 2.561-4.474s5.917-2.553 2.561-4.474c-3.355-1.921-.794-6.395 2.562-4.474 3.355 1.921 5.916-2.553 2.561-4.474-3.356-1.921-.794-6.395 2.561-4.474s5.917-2.553 2.561-4.474c-3.355-1.921-.794-6.395 2.562-4.474 3.355 1.921 5.916-2.553 2.561-4.474s-.794-6.395 2.561-4.474c3.356 1.921 5.917-2.553 2.562-4.474-3.356-1.921-.795-6.395 2.561-4.474 3.355 1.921 5.916-2.553 2.561-4.474s-.794-6.395 2.561-4.474c3.356 1.921 5.917-2.553 2.562-4.474-3.356-1.921-.794-6.395 2.561-4.474" stroke="#7f7f7f"/></g><text font-family="sans-serif" font-size="40" x="211.9" y="82.4">O</text><text font-family="sans-serif" font-size="40" x="123.2" y="237.3">C</text><text font-family="sans-serif" font-size="40" x="150.8" y="237.3">l</text></svg>
